X: 27991
T: Moving Bog, The
R: reel
M: 4/4
K: Gmajor
BGGF GBAF|D2=CD =FDCE|DGG^F G2Bc|1 d=fec dBcA:|2 d=fec d2Bc||
dggf g2ag|fdde fdcA|dggf g2ag|fgaf ~g3f|
defg ~a3g|fde^c defg|afge fde^c|d2eg fd=cA||

